X:188
T: DER MENSCH SOLL NICHT STOLZ SEIN
N: B0673
O: Europa, Mitteleuropa, Deutschland, Rheinland; Nassau; Wetterau
R: Moral - Lied, Vergaenglichkeit
M: 3/4
L: 1/8
K: Bb
D2 | F2F3F | G2G3F | E2E2G2 | F2z2
FA | B3cd2 | c2c2FA | B3cd2 | c2z2
F2 | d2c3B | A2G3G | F2F2E2 | D2z2
F2 | e2d2c2 | B2A3G | F2F2E2 | D2z2
F2 | d2c3B | A2G3G | F2F2E2 | D2z2
F2 | e2d2c2 | B2A3G | F2F2E2 | D2z2

@@@ Tune index: 2406
